packages/assets/static/images/icons/graduation-cap.svg

<svg width="24" height="24" viewBox="0 0 24 24" xmlns="http://www.w3.org/2000/svg">
<g clip-path="url(#clip0_2085_4105)">
<path d="M23.6025 7.588L12.3525 1.588C12.244 1.53022 12.1229 1.5 12 1.5C11.8771 1.5 11.756 1.53022 11.6475 1.588L0.39751 7.588C0.277514 7.65195 0.17716 7.74732 0.107185 7.8639C0.0372091 7.98049 0.000244141 8.1139 0.000244141 8.24988C0.000244141 8.38585 0.0372091 8.51926 0.107185 8.63585C0.17716 8.75243 0.277514 8.8478 0.39751 8.91175L3.00001 10.3002V14.8396C2.99923 15.208 3.13481 15.5636 3.38064 15.838C4.60876 17.2058 7.36032 19.4999 12 19.4999C13.5384 19.5126 15.0653 19.2339 16.5 18.6786V21.7499C16.5 21.9488 16.579 22.1396 16.7197 22.2802C16.8603 22.4209 17.0511 22.4999 17.25 22.4999C17.4489 22.4999 17.6397 22.4209 17.7803 22.2802C17.921 22.1396 18 21.9488 18 21.7499V17.9539C18.978 17.3894 19.8618 16.6754 20.6194 15.838C20.8652 15.5636 21.0008 15.208 21 14.8396V10.3002L23.6025 8.91175C23.7225 8.8478 23.8229 8.75243 23.8928 8.63585C23.9628 8.51926 23.9998 8.38585 23.9998 8.24988C23.9998 8.1139 23.9628 7.98049 23.8928 7.8639C23.8229 7.74732 23.7225 7.65195 23.6025 7.588ZM12 17.9999C7.94345 17.9999 5.55751 16.018 4.50001 14.8396V11.0999L11.6475 14.9118C11.756 14.9695 11.8771 14.9998 12 14.9998C12.1229 14.9998 12.244 14.9695 12.3525 14.9118L16.5 12.7002V17.0446C15.3188 17.5958 13.83 17.9999 12 17.9999ZM19.5 14.8358C19.0504 15.3347 18.5474 15.7827 18 16.1718V11.8996L19.5 11.0999V14.8358ZM17.625 10.4005L17.6044 10.3883L12.3544 7.588C12.1792 7.49853 11.9759 7.48145 11.7883 7.54044C11.6007 7.59943 11.4437 7.72976 11.3513 7.90337C11.2588 8.07697 11.2382 8.27994 11.294 8.46855C11.3498 8.65717 11.4774 8.81633 11.6494 8.91175L16.0313 11.2499L12 13.3996L2.34376 8.24988L12 3.10019L21.6563 8.24988L17.625 10.4005Z"/>
</g>
<defs>
<clipPath id="clip0_2085_4105">
<rect width="24" height="24"/>
</clipPath>
</defs>
</svg>

<svg viewBox="0 0 24 24" xmlns="http://www.w3.org/2000/svg" aria-hidden="true" fill="currentColor"><g clip-path="url(#a)"><path d="m23.603 7.588-11.25-6a.75.75 0 0 0-.705 0l-11.25 6a.75.75 0 0 0 0 1.324L3 10.3v4.54c0 .368.135.724.38.998C4.61 17.206 7.36 19.5 12 19.5a12.2 12.2 0 0 0 4.5-.821v3.07a.75.75 0 1 0 1.5 0v-3.795a10.8 10.8 0 0 0 2.62-2.116c.245-.274.38-.63.38-.998V10.3l2.602-1.388a.75.75 0 0 0 0-1.324M12 18c-4.057 0-6.442-1.982-7.5-3.16V11.1l7.148 3.812a.75.75 0 0 0 .704 0L16.5 12.7v4.345c-1.181.55-2.67.955-4.5.955m7.5-3.164c-.45.499-.953.947-1.5 1.336V11.9l1.5-.8zM17.625 10.4l-.02-.012-5.25-2.8a.75.75 0 0 0-.706 1.324l4.382 2.338L12 13.4 2.344 8.25 12 3.1l9.656 5.15z"/></g><defs><clipPath id="a"><path d="M0 0h24v24H0z"/></clipPath></defs></svg>
